svgs/duotone/bus-simple.svg

<svg xmlns="http://www.w3.org/2000/svg" viewBox="0 0 448 512"><!--! Font Awesome Pro 6.4.0 by @fontawesome - https://fontawesome.com License - https://fontawesome.com/license (Commercial License) Copyright 2023 Fonticons, Inc. --><defs><style>.fa-secondary{opacity:.4}</style></defs><path class="fa-primary" d="M224 0C348.8 0 448 35.2 448 80V96 416c0 17.7-14.3 32-32 32H32c-17.7 0-32-14.3-32-32V96 80C0 35.2 99.2 0 224 0zM64 128V256c0 17.7 14.3 32 32 32H352c17.7 0 32-14.3 32-32V128c0-17.7-14.3-32-32-32H96c-17.7 0-32 14.3-32 32zM80 400a32 32 0 1 0 0-64 32 32 0 1 0 0 64zm288 0a32 32 0 1 0 0-64 32 32 0 1 0 0 64z"/><path class="fa-secondary" d="M64 128c0-17.7 14.3-32 32-32H352c17.7 0 32 14.3 32 32V256c0 17.7-14.3 32-32 32H96c-17.7 0-32-14.3-32-32V128zM32 448h96v32c0 17.7-14.3 32-32 32H64c-17.7 0-32-14.3-32-32V448zm384 0v32c0 17.7-14.3 32-32 32H352c-17.7 0-32-14.3-32-32V448h96z"/></svg>

<svg xmlns="http://www.w3.org/2000/svg" viewBox="0 0 448 512"><!--! Font Awesome Pro 6.3.0 by @fontawesome - https://fontawesome.com License - https://fontawesome.com/license (Commercial License) Copyright 2023 Fonticons, Inc. --><defs><style>.fa-secondary{opacity:.4}</style></defs><path class="fa-primary" d="M224 0C348.8 0 448 35.2 448 80V416C448 433.7 433.7 448 416 448H32C14.33 448 0 433.7 0 416V80C0 35.2 99.19 0 224 0zM64 256C64 273.7 78.33 288 96 288H352C369.7 288 384 273.7 384 256V128C384 110.3 369.7 96 352 96H96C78.33 96 64 110.3 64 128V256zM80 400C97.67 400 112 385.7 112 368C112 350.3 97.67 336 80 336C62.33 336 48 350.3 48 368C48 385.7 62.33 400 80 400zM368 400C385.7 400 400 385.7 400 368C400 350.3 385.7 336 368 336C350.3 336 336 350.3 336 368C336 385.7 350.3 400 368 400z"/><path class="fa-secondary" d="M64 128C64 110.3 78.33 96 96 96H352C369.7 96 384 110.3 384 128V256C384 273.7 369.7 288 352 288H96C78.33 288 64 273.7 64 256V128zM32 448H128V480C128 497.7 113.7 512 96 512H64C46.33 512 32 497.7 32 480V448zM416 480C416 497.7 401.7 512 384 512H352C334.3 512 320 497.7 320 480V448H416V480z"/></svg>
